X: 1
T: Miss Eireann MacInnis Reel
C: Dave MacIsaac
R: reel
S: handout for Wendy MacIsaac online workshop 2022-2-21
Z: 2022 John Chambers <jc:trillian.mit.edu>
M: 2/2
L: 1/8
K: D
"^A"\ 
[| A2ed e2e2 | edef gfe2 | dedB B/B/B d2 | dGBd edBG |
|  AAed e2e2 | edef gfe2 | degd edBd | egBd eA A/A/A ||
|| A2ed e2e2 | edef gfe2 | dedB B/B/B d2 | dGBd edBG |
|  AAed e2e2 | edef gfe2 | degd edBd | egBd eAAe |]
"^B"\
[| agea gea2 | aeag agea | gage gdde | gafg edg2 |
|  agea gea2 | aeag agea | gage gdda | gedB eA A/A/A ||
|| agea gea2 | aeag agea | gage gdde | gafg edg2 |
|  agea gea2 | aeag agea | gage gdda | gedB A2eA |]
